X: 110
T: Mock Hobby Horse
M:6/8
L:1/8
Q:160
S:Playford
O:Manuscript
A:English
K:D
a|f>ef Bcd| e2 e e2 a/2g/2|f>ef ABc| d2 d d2 a|f>ef Bcd| e2 e e2 a/2g/2| f>ef ABc|d2 d d2 :|
|:d/2=c/2|B2 B B>AG|G2 g g>fe|fga a2^g|a2 a a>gf|e g2 f>ed| B e2 c>BA| afg e>dc| d2 d d2:|

